<?xml version="1.0" encoding="UTF-8"?>
<map version="1.0" tiledversion="1.1.2" orientation="orthogonal" renderorder="right-down" width="20" height="16" tilewidth="64" tileheight="64" infinite="0" backgroundcolor="#404040" nextobjectid="1">
 <tileset firstgid="1" name="scifi_bg_chip" tilewidth="64" tileheight="64" tilecount="64" columns="8">
  <image source="scifi_bg_chip.png" width="512" height="512"/>
 </tileset>
 <layer name="layer2" width="20" height="16">
  <data encoding="csv">
28,29,28,29,44,45,28,29,30,30,30,31,28,29,28,29,28,29,28,29,
36,37,36,37,52,53,36,37,38,38,38,39,36,37,36,37,36,37,36,37,
28,29,44,45,28,29,28,29,28,29,44,45,28,29,30,31,28,29,44,45,
36,37,52,53,36,37,36,37,36,37,52,53,36,37,30,32,36,37,52,53,
28,29,30,30,30,31,28,29,28,29,30,31,44,45,30,30,30,31,28,29,
36,37,38,40,30,31,36,37,36,37,38,39,52,53,38,38,38,39,36,37,
28,29,28,29,30,31,28,29,44,45,28,29,28,29,28,29,44,45,28,29,
36,37,36,37,38,39,36,37,52,53,36,37,36,37,36,37,52,53,36,37,
28,29,44,45,28,29,28,29,28,29,30,30,30,31,28,29,28,29,28,29,
36,37,52,53,36,37,36,37,36,37,38,38,38,39,36,37,36,37,36,37,
28,29,28,29,28,29,28,29,44,45,28,29,28,29,28,29,30,31,44,45,
36,37,36,37,36,37,36,37,52,53,36,37,36,37,36,37,30,31,52,53,
28,29,28,29,30,31,28,29,30,31,28,29,44,45,28,29,30,31,28,29,
36,37,36,37,30,31,36,37,38,39,36,37,52,53,36,37,30,31,36,37,
28,29,28,29,30,31,28,29,44,45,28,29,28,29,28,29,30,31,28,29,
36,37,36,37,38,39,36,37,52,53,36,37,36,37,36,37,38,39,36,37
</data>
 </layer>
 <layer name="layer1" width="20" height="16">
  <data encoding="csv">
0,25,49,35,0,0,0,0,0,50,0,0,0,50,0,50,0,0,0,0,
0,50,0,33,49,26,49,27,0,50,25,49,49,42,49,35,0,0,0,0,
0,50,0,50,0,50,0,33,49,34,35,0,0,0,0,50,25,49,49,27,
49,35,0,33,49,35,0,50,0,50,41,27,0,0,0,50,50,0,25,42,
49,42,49,43,0,50,0,50,0,50,0,50,0,0,0,41,35,0,33,49,
0,0,0,0,0,41,49,34,49,42,49,35,0,0,0,0,50,0,50,0,
0,0,0,0,0,0,0,50,0,0,0,33,49,49,49,49,34,49,35,0,
0,25,49,49,26,26,49,35,0,0,0,50,0,0,0,0,50,0,50,0,
49,35,0,0,50,50,0,50,0,0,0,33,49,49,49,49,43,0,33,49,
0,50,0,0,50,50,0,50,0,0,0,41,49,49,27,25,49,49,43,0,
0,50,0,0,50,50,0,33,49,27,0,0,0,0,50,50,0,0,0,0,
0,50,0,0,50,50,0,50,0,33,49,49,49,49,42,42,49,49,27,0,
0,33,49,27,50,50,0,50,0,50,0,0,0,25,49,26,49,27,50,0,
0,50,0,50,50,41,26,43,0,50,0,0,0,50,0,50,0,50,50,0,
49,43,0,33,42,49,43,0,0,50,0,0,0,50,0,50,0,41,42,49,
0,0,0,50,0,0,0,0,0,50,0,0,0,50,0,50,0,0,0,0
</data>
 </layer>
 <layer name="layer0" width="20" height="16">
  <data encoding="csv">
4,4,4,4,4,4,3,2,3,2,3,2,2,2,2,3,2,3,4,4,
4,0,0,0,0,0,0,0,0,0,0,0,0,0,0,0,13,14,3,4,
4,0,0,0,0,0,0,0,0,0,0,0,0,0,0,0,0,0,7,3,
4,0,0,0,0,0,2,2,2,2,2,2,11,12,0,0,0,0,0,2,
3,2,2,6,0,0,7,3,3,4,2,4,3,3,6,0,0,0,0,2,
2,4,3,2,6,0,0,13,14,2,2,2,2,2,2,2,0,0,0,3,
4,3,2,4,2,11,12,0,0,0,0,0,0,0,0,0,0,0,0,2,
3,4,4,2,3,3,2,11,12,0,0,0,0,0,0,0,0,0,0,2,
4,2,15,16,0,0,13,14,2,2,0,0,0,0,0,0,0,2,2,2,
2,8,0,0,0,0,0,0,7,2,0,0,0,0,0,0,0,0,0,3,
3,0,0,0,0,0,0,0,0,2,2,0,0,0,0,0,0,0,0,3,
2,0,0,0,0,0,0,0,0,0,0,0,0,9,10,2,2,2,2,4,
3,0,0,0,0,0,0,0,0,0,0,0,5,2,4,3,4,3,4,4,
4,6,0,0,0,0,0,0,5,2,2,2,2,3,2,3,2,4,3,4,
4,2,11,12,0,0,9,10,2,2,3,2,3,2,2,4,3,2,2,4,
4,4,4,3,2,3,2,4,4,4,4,4,4,4,4,4,4,4,4,4
</data>
 </layer>
 <layer name="guide" width="20" height="16" visible="0">
  <data encoding="csv">
24,24,24,24,24,24,24,24,24,24,0,0,0,0,0,0,0,0,0,0,
24,0,0,0,0,0,0,0,0,24,0,0,0,0,0,0,0,0,0,0,
24,0,0,0,0,0,0,0,0,24,0,0,0,0,0,0,0,0,0,0,
24,0,0,0,0,0,0,0,0,24,0,0,0,0,0,0,0,0,0,0,
24,0,0,0,0,0,0,0,0,24,0,0,0,0,0,0,0,0,0,0,
24,0,0,0,0,0,0,0,0,24,0,0,0,0,0,0,0,0,0,0,
24,0,0,0,0,0,0,0,0,24,0,0,0,0,0,0,0,0,0,0,
24,24,24,24,24,24,24,24,24,24,0,0,0,0,0,0,0,0,0,0,
0,0,0,0,0,0,0,0,0,0,0,0,0,0,0,0,0,0,0,0,
0,0,0,0,0,0,0,0,0,0,0,0,0,0,0,0,0,0,0,0,
0,0,0,0,0,0,0,0,0,0,0,0,0,0,0,0,0,0,0,0,
0,0,0,0,0,0,0,0,0,0,0,0,0,0,0,0,0,0,0,0,
0,0,0,0,0,0,0,0,0,0,0,0,0,0,0,0,0,0,0,0,
0,0,0,0,0,0,0,0,0,0,0,0,0,0,0,0,0,0,0,0,
0,0,0,0,0,0,0,0,0,0,0,0,0,0,0,0,0,0,0,0,
0,0,0,0,0,0,0,0,0,0,0,0,0,0,0,0,0,0,0,0
</data>
 </layer>
</map>
