{
  "backgroundcolor": "#10191d",
  "compressionlevel": -1,
  "height": 4,
  "infinite": false,
  "layers": [
    {
      "data": [
        1, 2, 3, 4,
        5, 6, 7, 8,
        9, 10, 11, 12,
        13, 14, 15, 16
      ],
      "height": 4,
      "id": 1,
      "name": "Kit Preview",
      "opacity": 1,
      "type": "tilelayer",
      "visible": true,
      "width": 4,
      "x": 0,
      "y": 0
    }
  ],
  "nextlayerid": 2,
  "nextobjectid": 1,
  "orientation": "orthogonal",
  "renderorder": "right-down",
  "tiledversion": "1.12.2",
  "tileheight": 64,
  "tilesets": [
    {
      "firstgid": 1,
      "source": "flooded-works-authoring.tsx"
    }
  ],
  "tilewidth": 64,
  "type": "map",
  "version": "1.10",
  "width": 4
}
